X: 7
T: Sí Beag Sí Mór
R: waltz
M: 3/4
L: 1/8
K: Dmaj
de |: f2 fe d2 | d2 de d2 |B4 A2 | F4 A2 |
BA Bc d2 | e4 de| f2 f2 e2 |d4 f2 |
B4 e2 | A4 d2 | F4 E2 | D4 f2 |
B4 e2 | A4 dc | d6 | d4 de :|
|: f2 fe d2 | ed ef a2 | b4 a2 | f4 ed |
e4 a2 | f4 e2 | d4 B2 | B4 A2 |
F4 E2 | D4 f2|B4 e2 | A4 a2|
ba gf ed | e4 dc | d6 |1 d4 de:|2 d6 ||


Tune 449	Setting 13325

